X:1
T:Ealing, LM
T:Ealing, LM
T:Herbert Stanley Oakley, 1874
T:Public Domain Courtesy of the Cyber Hymnal™
C:Herbert Stanley Oakley, 1874
Z:Public Domain
Z:Courtesy of the Cyber Hymnal™
%%score ( 1 2 ) ( 3 4 )
L:1/8
Q:1/4=112
M:4/4
K:F
V:1 treble 
V:2 treble 
V:3 bass 
V:4 bass 
V:1
 [CF]2 | [CE]2 [CF]2 [CG]2 [EG]2 | F2 [CG]2 [CA]2 [FA]2 | B2 A2 [DG]2 [A,A]2 | F2 D2 [G,C]2 D[CE] | %5
 [CF]2 B2 [FA]2 [Fc]2 | [FB]2 [C_e]2 [Dd]2 [=Ec]2 | [Fc]2 [DB]2 [CB]2 [FA]2 | G2 [EG]2 F2 |] %9
V:2
 x2 | x8 | F2 x6 | (FE) (D^C) x4 | (DC) (=B,G,) x4 | x2 (DE) x4 | x8 | x8 | (FD) x F2 x |] %9
V:3
 [F,A,]2 | [G,B,]2 [F,A,]2 [E,G,]2 [B,C]2 | [A,C]2 [E,B,]2 [F,A,]2 [D,A,]2 | %3
 (A,G,) (F,E,) [=B,,D,]2 [^C,E,]2 | [D,A,]2 (G,F,) [C,E,]2 (F,G,) | %5
 [A,,A,]2 [G,B,]2 [F,C]2 [_E,A,]2 | [D,F,]2 (G,A,) [B,,B,]2 [C,A,]2 | %7
 [D,A,]2 ([G,B,][F,A,]) [E,G,]2 (A,B,) | [C,C]2 (CB,) [F,A,]2 |] %9
V:4
 x2 | x8 | x8 | G,,2 A,,2 x4 | x2 G,,2 x B,,2 x | x8 | x2 C,2 x4 | x6 F,2 | x2 C,2 x2 |] %9

